Source Code/mun/assets/flags/THA.svg

<svg viewBox="0 0 40.5 40.5" xmlns="http://www.w3.org/2000/svg"><path d="m40.5 20.25a20 20 0 0 1 -1.16 6.75h-38.18a20.22 20.22 0 0 1 0-13.5h38.18a20 20 0 0 1 1.16 6.75z" fill="#2d2a4a"/><path d="m35.33 6.75h-30.16a20.22 20.22 0 0 1 30.16 0z" fill="#a51931"/><path d="m35.33 33.75a20.22 20.22 0 0 1 -30.16 0z" fill="#a51931"/><g fill="#f4f5f8"><path d="m39.34 13.5h-38.18a20 20 0 0 1 4-6.75h30.17a20 20 0 0 1 4.01 6.75z"/><path d="m39.34 27a20 20 0 0 1 -4 6.75h-30.17a20 20 0 0 1 -4-6.75z"/></g></svg>

<svg xmlns="http://www.w3.org/2000/svg" viewBox="0 0 40.5 40.5"><defs><style>.cls-1{fill:#2d2a4a;}.cls-2{fill:#a51931;}.cls-3{fill:#f4f5f8;}</style></defs><g id="Ebene_2" data-name="Ebene 2"><g id="Ńëîé_1" data-name="Ńëîé 1"><path class="cls-1" d="M40.5,20.25A20,20,0,0,1,39.34,27H1.16a20.22,20.22,0,0,1,0-13.5H39.34A20,20,0,0,1,40.5,20.25Z"/><path class="cls-2" d="M35.33,6.75H5.17a20.22,20.22,0,0,1,30.16,0Z"/><path class="cls-2" d="M35.33,33.75a20.22,20.22,0,0,1-30.16,0Z"/><path class="cls-3" d="M39.34,13.5H1.16a20,20,0,0,1,4-6.75H35.33A20,20,0,0,1,39.34,13.5Z"/><path class="cls-3" d="M39.34,27a20,20,0,0,1-4,6.75H5.17a20,20,0,0,1-4-6.75Z"/></g></g></svg>
